X:154
T:Reel 154
M:4/4
K:Ador
L:1/8
A,>B, (3G,F,G, A,G,F,E,|D,>E, (3G,F,G, A,G,E,D,|D,>E, (3E,F,G, A,B,CD|EDED C>B, (3CB,B, :|A,>G, (3G,F,G, A,G,F,A,|B,G,G,G, A,G,E,D,|D,>G, (3G,A,G, A,B,CA,|B,>E, (3E,E,D, D,2G,A,:|D>G (3GGG A>G (3GGG |D>G (3GGG c>G (3GGG |DGGE FCDC|B,A,G,A, F,D,E,2:|
